co/link_02.svg

<svg viewBox="0 0 24 24" fill="none" xmlns="http://www.w3.org/2000/svg" height="1em" width="1em">
  <path d="M8.46492 20.535C6.44276 20.535 4.6197 19.3169 3.84572 17.4487C3.07175 15.5805 3.49925 13.4301 4.92892 12L7.05092 9.87799L8.46492 11.292L6.34392 13.413C5.58598 14.1709 5.28997 15.2756 5.5674 16.311C5.84482 17.3464 6.65354 18.1551 7.6889 18.4325C8.72426 18.7099 9.82898 18.4139 10.5869 17.656L12.7079 15.535L14.1219 16.95L12.0009 19.071C11.065 20.0115 9.79178 20.5387 8.46492 20.535ZM9.17192 16.242L7.75792 14.828L14.8289 7.75699L16.2429 9.17099L9.17292 16.241L9.17192 16.242ZM16.9509 14.121L15.5359 12.707L17.6569 10.586C18.4252 9.83032 18.7291 8.72065 18.4532 7.67897C18.1772 6.63729 17.3637 5.82364 16.3221 5.54743C15.2805 5.27123 14.1708 5.57491 13.4149 6.34299L11.2929 8.46399L9.87892 7.04999L12.0009 4.92799C13.956 2.98996 17.1099 2.99686 19.0565 4.94344C21.0031 6.89002 21.01 10.0439 19.0719 11.999L16.9509 14.12V14.121Z" fill="black"/>
</svg>

<svg viewBox="0 0 24 24" fill="none" xmlns="http://www.w3.org/2000/svg" height="1em" width="1em">
  <path d="M8.465 20.535A5 5 0 0 1 4.929 12L7.05 9.878l1.414 1.414-2.121 2.121a3 3 0 1 0 4.243 4.243l2.12-2.121 1.415 1.415L12 19.071a4.969 4.969 0 0 1-3.536 1.464Zm.707-4.293-1.414-1.414 7.07-7.071 1.415 1.414-7.07 7.07-.001.001Zm7.779-2.121-1.415-1.414 2.12-2.121a3 3 0 1 0-4.241-4.243l-2.122 2.121L9.879 7.05 12 4.928a5 5 0 0 1 7.07 7.071l-2.12 2.121v.001Z" fill="#000"/>
</svg>
